!!!OTL: WENN DU IN MI GOSSLI GOHST
!!!ARE: Europa, Mitteleuropa, Deutschland, Coburg
!!!SCT: E0669
!!!YEM: Copyright 1995, estate of Helmut Schaffrath.
**kern
*ICvox
*Ivox
*M2/4
*k[f#]
*G:
=1
{8g
8b
8b
8cc
=2
8b
8dd
4dd}
=3
{8g
8b
8b
8cc
=4
4dd
8gg
8r}
=5
{8g
8b
8b
8cc
=6
8b
8dd
4dd}
=7
{8g
8b
8b
8cc
=8
4dd
8gg
8r}
=9
{8b
8b
8.b
16a
=10
8a
8g
8g
8r}
=11
{8cc
8cc
8.cc
16b
=12
8b
8a
8.a}
{16a
=13
16b
16b
8b
8cc
8a
=14
4a
8g
8r}
==
!!!AGN: Liebes - Lied
!!!ONB: ESAC (Essen Associative Code) Database: ERK2
!!!AMT: simple duple
!!!AIN: vox
!!!EED: Helmut Schaffrath
!!!EEV: 1.0
*-
